src/lib/packages/icons/src/assets/line/sort-descending-circle.svg

<svg width="24" height="24" viewBox="0 0 24 24" fill="none" xmlns="http://www.w3.org/2000/svg">
<path d="M12 22.75C6.072 22.75 1.25 17.927 1.25 12C1.25 6.073 6.072 1.25 12 1.25C17.928 1.25 22.75 6.073 22.75 12C22.75 17.927 17.928 22.75 12 22.75ZM12 2.75C6.899 2.75 2.75 6.899 2.75 12C2.75 17.101 6.899 21.25 12 21.25C17.101 21.25 21.25 17.101 21.25 12C21.25 6.899 17.101 2.75 12 2.75ZM16.75 8C16.75 7.586 16.414 7.25 16 7.25H8C7.586 7.25 7.25 7.586 7.25 8C7.25 8.414 7.586 8.75 8 8.75H16C16.414 8.75 16.75 8.414 16.75 8ZM15.25 12C15.25 11.586 14.914 11.25 14.5 11.25H9.5C9.086 11.25 8.75 11.586 8.75 12C8.75 12.414 9.086 12.75 9.5 12.75H14.5C14.914 12.75 15.25 12.414 15.25 12ZM13.75 16C13.75 15.586 13.414 15.25 13 15.25H11C10.586 15.25 10.25 15.586 10.25 16C10.25 16.414 10.586 16.75 11 16.75H13C13.414 16.75 13.75 16.414 13.75 16Z" fill="currentColor"/>
</svg>

<svg xmlns="http://www.w3.org/2000/svg" width="24" height="24" fill="none"><path fill="currentColor" d="M12 22.75C6.072 22.75 1.25 17.927 1.25 12S6.072 1.25 12 1.25 22.75 6.073 22.75 12 17.928 22.75 12 22.75Zm0-20c-5.101 0-9.25 4.149-9.25 9.25s4.149 9.25 9.25 9.25 9.25-4.149 9.25-9.25S17.101 2.75 12 2.75ZM16.75 8a.75.75 0 0 0-.75-.75H8a.75.75 0 0 0 0 1.5h8a.75.75 0 0 0 .75-.75Zm-1.5 4a.75.75 0 0 0-.75-.75h-5a.75.75 0 0 0 0 1.5h5a.75.75 0 0 0 .75-.75Zm-1.5 4a.75.75 0 0 0-.75-.75h-2a.75.75 0 0 0 0 1.5h2a.75.75 0 0 0 .75-.75Z"/></svg>
